X:393
T: "Die geraubte Koenigstochter"
N: Z1073
O: Europa, Mitteleuropa, Deutschland
R: Romanze, Ballade, Jaeger - Lied
M: 6/8
L: 1/16
K: G
D2 | G4A2B4G2 | A4G2F4
A2 | d4B2A4FD | G4E2D4z2 |
G2G2G2D2B,2G,2 | G2G2G2D2B,2
G2 | G4A2B3cB2 | A4BAG4z
G | G4A2B3cB2 | A4BAG4

@@@ Tune index: 10151
